X: 70
T: Si nian
L: 1/16
M: 2/4
K: F
d2 c A c d f2 [I:setbarnb 1]| 
c6d f | 
d2 c A c d f2 | 
c8 | 
c2 d c2< f2 d | 
c d f2 d c A2 | 
A G F2 G A d c | 
F8 |]

@@@ Tune index: 8738
